X:1163
M:6/8
L:1/8
Q:3/8=88
K:D
e/d/|B2B    B2d|A2A A2d|AFA Ade|f3  f2e/d/|B2B    B2d|AFA A2d|B2g fge|d3 d2|]

